app/assets/images/platform-authenticator.svg

<svg width="84" height="95" viewBox="0 0 84 95" fill="none" xmlns="http://www.w3.org/2000/svg">
<g clip-path="url(#clip0_62_3989)">
<path d="M2.86608e-07 54.4296C0.231049 42.8954 4.61315 32.502 13.4557 24.1385C19.5463 18.3232 27.3004 14.575 35.6246 13.4226C47.1183 11.7389 57.6408 14.292 66.9807 21.2275C75.553 27.5925 80.8319 36.1763 83.0367 46.6444C83.7611 50.0748 84.2741 53.5642 83.8394 57.0575C83.0562 63.3518 79.6218 67.8128 73.8534 70.3187C64.5175 74.3746 53.5642 68.5288 51.5787 58.517C51.3524 57.3654 51.2214 56.197 51.1871 55.0237C51.0462 50.2282 47.459 46.2904 42.9203 46.0189C37.8646 45.7121 33.6431 48.9891 33.0596 53.934C32.668 57.2031 33.1967 60.4643 34.066 63.6389C37.2341 75.2086 44.3497 83.2495 55.4635 87.6791C57.0104 88.2967 58.2596 89.1071 58.4436 90.9285C58.533 91.5483 58.459 92.1808 58.2289 92.7629C57.9989 93.345 57.6208 93.8562 57.1325 94.2456C56.6442 94.635 56.0628 94.8889 55.4462 94.982C54.8297 95.075 54.1997 95.0039 53.619 94.7758C48.4382 92.9583 43.6735 90.1143 39.6073 86.4124C33.7352 81.1601 29.4717 74.338 27.3147 66.7428C25.9401 61.9395 25.1452 57.0378 25.9441 52.03C27.0366 45.181 32.993 39.7011 39.8344 38.753C48.0034 37.6161 56.372 43.1039 58.0912 51.8333C58.3731 53.2692 58.3692 54.7562 58.5572 56.2157C59.1838 61.1016 62.9158 64.3589 67.807 64.2605C70.1308 64.2071 72.3441 63.2533 73.984 61.5985C75.624 59.9438 76.5636 57.7163 76.6064 55.3817C76.6772 47.7471 74.2489 40.3006 69.695 34.1878C65.1411 28.0751 58.7141 23.6348 51.4025 21.55C43.3902 19.292 35.4484 19.768 27.8551 23.2534C17.595 27.9741 11.0551 35.9285 8.27469 46.9041C6.82272 52.6377 6.90378 58.6549 8.50965 64.347C8.85427 65.5902 8.93651 66.8136 8.15329 67.923C7.79636 68.4968 7.2819 68.9547 6.67186 69.2416C6.06183 69.5284 5.38225 69.632 4.71497 69.5398C3.973 69.4788 3.27084 69.1772 2.71427 68.6806C2.15771 68.1839 1.77686 67.519 1.62909 66.7861C0.547304 62.7572 -0.000457423 58.6025 2.86608e-07 54.4296Z" fill="#E21C3D"/>
<path d="M12.8174 55.8655C12.8174 44.6696 17.5715 35.3383 28.0588 29.3667C33.6769 26.1103 40.2688 24.9787 46.6445 26.1763C58.0012 28.2219 65.6454 34.7994 69.6515 45.6294C70.7137 48.589 71.2364 51.7166 71.1945 54.8623C71.1945 56.9513 69.8826 58.4658 67.9872 58.6428C65.9312 58.8356 64.3452 57.6239 64.0084 55.4957C63.7186 53.6625 63.7147 51.7703 63.2879 49.9882C62.6385 47.0233 61.3598 44.234 59.5391 41.8109C57.7183 39.3879 55.3985 37.3881 52.7379 35.9481C49.3114 34.0181 45.4298 33.0531 41.5027 33.155C36.669 33.1644 31.9923 34.8799 28.2898 38.0016C22.4157 42.9308 19.835 49.2683 20.1757 56.963C20.5293 64.8825 22.791 72.5974 26.7665 79.4453C27.1636 80.0888 27.3481 80.8418 27.2938 81.5968C27.2395 82.3519 26.949 83.0704 26.4639 83.6498C25.9788 84.2292 25.3239 84.6397 24.5926 84.8229C23.8614 85.006 23.0913 84.9523 22.3922 84.6696C21.57 84.297 20.8763 83.6878 20.3989 82.919C16.6893 76.5201 14.2752 69.4478 13.2951 62.1086C13.0602 60.299 13.0171 58.4579 12.8174 55.8655Z" fill="#E21C3D"/>
<path d="M41.6711 0.00390625C50.0016 0.0965924 58.2116 2.0151 65.7276 5.62546C70.6303 8.00493 75.147 11.1151 79.1245 14.8505C80.9298 16.5342 81.1178 18.7569 79.5827 20.3816C78.263 21.7781 76.3362 21.9158 74.7463 20.653C73.4736 19.638 72.287 18.509 71.0143 17.5059C65.0752 12.7042 58.0057 9.5191 50.4862 8.25724C35.6325 5.74347 22.3804 9.43742 10.8162 19.1738C10.007 19.9081 9.08023 20.4999 8.07499 20.9244C6.70044 21.4398 5.1066 20.7277 4.31947 19.5476C3.88003 18.908 3.65258 18.1456 3.66945 17.3686C3.68633 16.5917 3.94668 15.84 4.41346 15.2203C4.85287 14.6943 5.33918 14.2097 5.86632 13.7726C13.8316 6.90792 22.9522 2.50588 33.3416 0.881173C36.0907 0.444509 38.9063 0.283214 41.6711 0.00390625Z" fill="#E21C3D"/>
<path d="M67.4663 84.4138C61.3329 84.3852 55.3629 82.4254 50.3963 78.8102C45.4298 75.1949 41.7167 70.1063 39.7796 64.2604C38.8504 61.4334 38.3578 58.4802 38.3189 55.5035C38.2758 52.4389 41.0092 50.6097 43.633 51.9118C44.1519 52.155 44.5987 52.5301 44.929 53C45.2594 53.4698 45.4619 54.0182 45.5166 54.5908C45.7203 56.2391 45.7477 57.9268 46.108 59.5397C47.8663 67.4075 52.4677 72.8442 59.9983 75.6923C63.2708 76.9225 66.7899 77.3435 70.2584 76.9197C70.728 76.8611 71.2046 76.8969 71.6603 77.0251C72.116 77.1533 72.5417 77.3713 72.9127 77.6664C73.2837 77.9615 73.5926 78.3278 73.8213 78.7439C74.0501 79.1601 74.1941 79.6178 74.245 80.0904C74.4526 82.3249 73.0702 83.9889 70.8693 84.1541L67.4663 84.4138Z" fill="#E21C3D"/>
</g>
<defs>
<clipPath id="clip0_62_3989">
<rect width="84" height="95" fill="white"/>
</clipPath>
</defs>
</svg>

<svg xmlns="http://www.w3.org/2000/svg" width="84" height="95" fill="none"><g clip-path="url(#A)" fill="#e21c3d"><path d="M0 54.43c.231-11.534 4.613-21.928 13.456-30.291a40.06 40.06 0 0122.169-10.716c11.494-1.684 22.016.869 31.356 7.805 8.572 6.365 13.851 14.949 16.056 25.417.724 3.43 1.237 6.92.803 10.413-.783 6.294-4.218 10.755-9.986 13.261-9.336 4.056-20.289-1.79-22.275-11.802a21.47 21.47 0 01-.392-3.493c-.141-4.795-3.728-8.733-8.267-9.005-5.056-.307-9.277 2.97-9.861 7.915-.392 3.269.137 6.53 1.006 9.705 3.168 11.57 10.284 19.611 21.398 24.04 1.547.618 2.796 1.428 2.98 3.249a3.6 3.6 0 01-.215 1.834 3.58 3.58 0 01-1.096 1.483 3.56 3.56 0 01-1.686.736 3.55 3.55 0 01-1.827-.206 40.95 40.95 0 01-14.012-8.363 41.65 41.65 0 01-12.293-19.67c-1.375-4.803-2.169-9.705-1.371-14.713 1.093-6.849 7.049-12.329 13.89-13.277 8.169-1.137 16.538 4.351 18.257 13.08.282 1.436.278 2.923.466 4.382.627 4.886 4.359 8.143 9.25 8.045 2.324-.053 4.537-1.007 6.177-2.662s2.58-3.882 2.622-6.217a34.934 34.934 0 00-6.911-21.194A34.67 34.67 0 0051.403 21.55c-8.012-2.258-15.954-1.782-23.547 1.703-10.26 4.721-16.8 12.675-19.58 23.651a33.74 33.74 0 00.235 17.443c.345 1.243.427 2.467-.356 3.576a3.5 3.5 0 01-1.481 1.319 3.48 3.48 0 01-1.957.298 3.432 3.432 0 01-2.001-.859 3.45 3.45 0 01-1.085-1.894A47.63 47.63 0 010 54.43zm12.817 1.436c0-11.196 4.754-20.527 15.241-26.499a27.084 27.084 0 0118.586-3.19C58.001 28.223 65.645 34.8 69.651 45.63a26.3 26.3 0 011.543 9.233c0 2.089-1.312 3.604-3.207 3.781-2.056.193-3.642-1.019-3.979-3.147-.29-1.833-.294-3.725-.72-5.507a21.13 21.13 0 00-3.749-8.177 21.03 21.03 0 00-6.801-5.863 21.74 21.74 0 00-11.235-2.793 20.56 20.56 0 00-13.213 4.847c-5.874 4.929-8.455 11.267-8.114 18.961a49.15 49.15 0 006.591 22.482 3.6 3.6 0 01-.303 4.204c-.485.579-1.14.99-1.871 1.173a3.56 3.56 0 01-2.2-.153A4.565 4.565 0 0120.4 82.92a56.37 56.37 0 01-7.104-20.81c-.235-1.81-.278-3.651-.478-6.243zM41.671.004a57.02 57.02 0 0124.056 5.622 54.037 54.037 0 0113.397 9.225c1.805 1.684 1.993 3.906.458 5.531-1.32 1.396-3.246 1.534-4.836.271-1.273-1.015-2.459-2.144-3.732-3.147a44.317 44.317 0 00-20.528-9.249c-14.854-2.514-28.106 1.18-39.67 10.917a9.706 9.706 0 01-2.741 1.751c-1.375.515-2.968-.197-3.756-1.377a3.71 3.71 0 01-.65-2.179 3.7 3.7 0 01.744-2.148 11.25 11.25 0 011.453-1.448C13.832 6.908 22.952 2.506 33.342.881c2.749-.437 5.565-.598 8.33-.877zm25.795 84.41a29.234 29.234 0 01-17.07-5.604A29.45 29.45 0 0139.78 64.26a29.27 29.27 0 01-1.461-8.757c-.043-3.065 2.69-4.894 5.314-3.592A3.29 3.29 0 0144.929 53a3.32 3.32 0 01.588 1.591c.204 1.648.231 3.336.591 4.949 1.758 7.868 6.36 13.304 13.89 16.153a21.68 21.68 0 0010.26 1.227 3.55 3.55 0 011.402.105 3.56 3.56 0 011.252.641 3.58 3.58 0 01.909 1.078 3.59 3.59 0 01.424 1.347c.208 2.234-1.175 3.898-3.376 4.064l-3.403.26z"/></g><defs><clipPath id="A"><path fill="#fff" d="M0 0h84v95H0z"/></clipPath></defs></svg>
